platform/openide.explorer/src/org/netbeans/modules/openide/explorer/columns.svg

<?xml version="1.0" encoding="UTF-8"?>
<!--

    Licensed to the Apache Software Foundation (ASF) under one
    or more contributor license agreements.  See the NOTICE file
    distributed with this work for additional information
    regarding copyright ownership.  The ASF licenses this file
    to you under the Apache License, Version 2.0 (the
    "License"); you may not use this file except in compliance
    with the License.  You may obtain a copy of the License at

      http://www.apache.org/licenses/LICENSE-2.0

    Unless required by applicable law or agreed to in writing,
    software distributed under the License is distributed on an
    "AS IS" BASIS, WITHOUT WARRANTIES OR CONDITIONS OF ANY
    KIND, either express or implied.  See the License for the
    specific language governing permissions and limitations
    under the License.

-->
<svg id="New_Vector" data-name="New Vector" xmlns="http://www.w3.org/2000/svg" width="13" height="15" version="1.1" viewBox="0 0 13 15">
  <defs>
    <style>
      .cls-1, .cls-2, .cls-3, .cls-4, .cls-5 {
        stroke-width: 0px;
      }

      .cls-1, .cls-4 {
        fill: #000;
      }

      .cls-2 {
        fill: #e0e0e0;
      }

      .cls-3 {
        fill: #ffda00;
      }

      .cls-6 {
        opacity: .33;
      }

      .cls-4 {
        opacity: .4;
      }

      .cls-5 {
        fill: #fff;
      }
    </style>
  </defs>
  <rect class="cls-2" x="1" y="3.5" width="10" height="9.5"/>
  <path class="cls-4" d="M1,3.5v9.5h10V3.5H1ZM2,12V4s2.5,0,2.5,0v8s-2.5,0-2.5,0ZM5,12V4s2.5,0,2.5,0v8s-2.5,0-2.5,0ZM10,12h-2V4s2,0,2,0v8Z"/>
  <g>
    <polygon class="cls-3" points="5.52 -.5 7.226 2.956 11.04 3.511 8.28 6.201 8.932 10 5.52 8.206 2.109 10 2.76 6.201 0 3.511 3.814 2.956 5.52 -.5"/>
    <g class="cls-6">
      <path class="cls-1" d="M5.52.63l1.257,2.548.116.236.26.038,2.812.409-2.035,1.983-.188.183.044.259.48,2.8-2.515-1.322-.233-.122-.233.122-2.515,1.322.48-2.8.044-.259-.188-.183-2.035-1.983,2.812-.409.26-.038.116-.236,1.258-2.548M5.52-.5l-1.706,3.456-3.814.554,2.76,2.69-.652,3.799,3.412-1.794,3.412,1.794-.652-3.799,2.76-2.69-3.814-.554-1.706-3.456h0Z"/>
    </g>
  </g>
  <g>
    <rect class="cls-1" x="7.596" y="3.596" width="2" height="11" transform="translate(-3.914 8.743) rotate(-45)"/>
    <g>
      <polygon class="cls-5" points="4.035 5.879 5.449 4.535 7.854 7.01 6.476 8.319 4.035 5.879"/>
      <path class="cls-1" d="M5.414,4.641l2.333,2.333-1.273,1.273-2.333-2.333,1.273-1.273M5.414,4.5l-1.414,1.414,2.475,2.475,1.414-1.414-2.475-2.475h0Z"/>
    </g>
  </g>
</svg>

<?xml version="1.0" encoding="utf-8"?>
<!--

    Licensed to the Apache Software Foundation (ASF) under one
    or more contributor license agreements.  See the NOTICE file
    distributed with this work for additional information
    regarding copyright ownership.  The ASF licenses this file
    to you under the Apache License, Version 2.0 (the
    "License"); you may not use this file except in compliance
    with the License.  You may obtain a copy of the License at

      http://www.apache.org/licenses/LICENSE-2.0

    Unless required by applicable law or agreed to in writing,
    software distributed under the License is distributed on an
    "AS IS" BASIS, WITHOUT WARRANTIES OR CONDITIONS OF ANY
    KIND, either express or implied.  See the License for the
    specific language governing permissions and limitations
    under the License.

-->
<!-- Generator: Adobe Illustrator 24.0.1, SVG Export Plug-In . SVG Version: 6.00 Build 0)  -->
<svg version="1.1" id="Vector_Icons" xmlns="http://www.w3.org/2000/svg" xmlns:xlink="http://www.w3.org/1999/xlink" x="0px"
	 y="0px" width="13px" height="15px" viewBox="0 0 13 15" style="enable-background:new 0 0 13 15;" xml:space="preserve">
<style type="text/css">
	.st0{fill:#E0E0E0;}
	.st1{opacity:0.4;}
	.st2{fill:#FFDA00;}
	.st3{opacity:0.33;}
	.st4{fill:#FFFFFF;}
</style>
<rect x="1" y="3.5" class="st0" width="10" height="9.5"/>
<path class="st1" d="M1,3.5V13h10V3.5H1z M2,12V4h2.5v8H2z M5,12V4h2.5v8H5z M10,12H8V4h2V12z"/>
<g>
	<polygon class="st2" points="5.52,-0.5 7.226,2.956 11.04,3.511 8.28,6.201 8.932,10 5.52,8.206 2.109,10 2.76,6.201 0,3.511 
		3.814,2.956 	"/>
	<g class="st3">
		<path d="M5.52,0.63l1.257,2.548l0.116,0.236l0.26,0.038L9.966,3.86L7.931,5.843L7.743,6.026l0.044,0.259l0.48,2.8L5.753,7.764
			L5.52,7.641L5.288,7.764L2.773,9.086l0.48-2.8l0.044-0.259L3.109,5.843L1.074,3.86l2.812-0.409l0.26-0.038l0.116-0.236L5.52,0.63
			 M5.52-0.5L3.814,2.956L0,3.511l2.76,2.69L2.109,10L5.52,8.206L8.932,10L8.28,6.201l2.76-2.69L7.226,2.956L5.52-0.5L5.52-0.5z"/>
	</g>
</g>
<g>
	<g>
		<rect x="7.596" y="3.596" transform="matrix(0.7071 -0.7071 0.7071 0.7071 -3.9142 8.7426)" width="2" height="11"/>
	</g>
	<g>
		<polygon class="st4" points="4.035,5.879 5.449,4.535 7.854,7.01 6.476,8.319 		"/>
		<path d="M5.414,4.641l2.333,2.333L6.475,8.248L4.141,5.914L5.414,4.641 M5.414,4.5L4,5.914l2.475,2.475l1.414-1.414L5.414,4.5
			L5.414,4.5z"/>
	</g>
</g>
</svg>
